X: 685
T: Jesu, Joy of Man's Desiring
C:by J. S. Bach
B: jims roots
M:9/8
L:1/8
R: Dude!
Q: 3/8=100
K:G
V:1 
%Q:=180
(3zGA Bdc ced | dgf gdB GAB | cde dcB ABG | FGA DFA cBA |
BGA Bdc ced | dgf gdB GAB | Adc BAG DGF | GBd gdB GBd | [g3B3D][G3B][E3c]  ||
BGA Bdc ced | dgf gdB GAB | Edc BAG DGF | GBA Bdc ced |
dgf gdB GAB | cde dcB ABG | FGA DFA cBA | BGA Bdc ced |
dgf gdB GAB | Adc BAG DGF | [1 [G,3G] [B3D] [c3E] | [A3d] G3 [F3d] | [G3c]D3[G3B]:|
[2 GBd gdB GB^c || dDE FA^G GBA | AcB cAE CDE | =Fdc dB^G E^FG |
AcB ced d=fe | ea^g aec ABc | =fed cBA EA^G | Ace a6 |
zcd e"1"g"4"=f g"3"_ba | a"4"c'b c'a=f def | eg=f gec GA_B | AcB cA=F DEF |
ECD EGF GBA | BGA Bdc ced | dgf gdB GAB | cde dcB ABG |
FDE FAG AcB | cAF DFA cBA | BGA Bdc ced | dgf gdB GAB |
Edc BAG DGF | GBd gdB GBd | =fdB GBd ecA | FAc dBG EGB |
cAF DFA cBA | BGA Bdc ced | dgf gdB GAB | cde dcB ABG |
FGA DFA cBA | BGA Bdc ced | dgf gdB GAB | Edc BAG DGF | G8z |
V:A3d 
G3[F3d] | [G3c](D3[D)3B] |:  [(DA]D)E FAG AcB | cAF DFA cBA |
% abcbook-tune_id 6298c25dfe10b486ab0c6a0a


% abcbook-boost 0
% abcbook-tablature 
% abcbook-transpose 
% abcbook-lastupdated 1654178399161
% abcbook-soundfonts 
% abcbook-repeats 1


